X: 1
T: H\"okpers vals
C: Lars H\"okpers
Z: 1997 by John Chambers <jc:trillian.mit.edu>
M: 3/4
L: 1/8
K: Dm
|: A2 \
| "Dm"d3 efa | "Gm"g3 fed | "A7"^c2 A3G | "Dm"F4 D2 \
| "Dm"F2 EF AG | "C"E4 c2 | "G"=B2 GA Bd | "A7"A4 ^c2 |
| "Dm"d3 efa | "Gm"g3 fed | "A7"^c2 A3G | "Dm"F4 "A7"E2 \
| "Dm"D2 ^CD EF | "Gm"AG G3E | "A7"F2 E2 D^C | "Dm"D4 :|
|: A2 \
| "Dm"AF FD FA | AF FD FA | A2 G2 zF | "A7"E4 G2 \
| GE E^C  EG | GE E^C  EG | G2 A2 zE | "Dm"F4 A2 |
| "Dm"AF FD FA | AF FD FA | "D7"A2 d3c | "Gm"B4 B2 \
| B2 c3B | "Dm"A4 F2 | "A7"GF E2 D^C | "Dm"D4 :|

%%sep 1 1 500

